Newaita-dark/apps/16/com.github.bitseater.weather.svg

<svg height="16pt" viewBox="0 0 16 16" width="16pt" xmlns="http://www.w3.org/2000/svg" xmlns:xlink="http://www.w3.org/1999/xlink"><linearGradient id="a" gradientTransform="matrix(.00190858 0 0 .031253 7.450955 6.719392)" gradientUnits="userSpaceOnUse" x1="254" x2="254" y1="233.5" y2="254.66667"><stop offset="0" stop-opacity=".27451"/><stop offset="1" stop-opacity="0"/></linearGradient><linearGradient id="b"><stop offset="0" stop-opacity=".313725"/><stop offset=".222222" stop-opacity=".27451"/><stop offset="1" stop-opacity="0"/></linearGradient><radialGradient id="c" cx="450.90894" cy="189.57936" gradientTransform="matrix(.00000009 -.0390662 -.0703192 -.00000005 21.434674 31.797667)" gradientUnits="userSpaceOnUse" r="21.166656" xlink:href="#b"/><radialGradient id="d" cx="450.90894" cy="189.57936" gradientTransform="matrix(-.00000009 .0390662 .0703192 .00000005 -5.558155 -3.763739)" gradientUnits="userSpaceOnUse" r="21.166656" xlink:href="#b"/><radialGradient id="e" cx="450.90894" cy="189.57936" gradientTransform="matrix(-.00000009 -.0390662 .0703192 -.00000005 -5.558155 31.797667)" gradientUnits="userSpaceOnUse" r="21.166656" xlink:href="#b"/><radialGradient id="f" cx="450.90894" cy="189.57936" gradientTransform="matrix(.00000009 .0390662 -.0703192 .00000005 21.434673 -3.76374)" gradientUnits="userSpaceOnUse" r="21.166656" xlink:href="#b"/><linearGradient id="g" gradientUnits="userSpaceOnUse" x1="7.9382592" x2="7.9382592" y1="14.01696629816" y2="1.44805523664"><stop offset="0" stop-color="#bdbdbd"/><stop offset="1" stop-color="#e0e0e0"/></linearGradient><linearGradient id="h" gradientUnits="userSpaceOnUse" x1="7.9382592" x2="7.9382592" y1="14.01696629816" y2="1.44805523664"><stop offset="0" stop-color="#5c6bc0"/><stop offset="1" stop-color="#7986cb"/></linearGradient><linearGradient id="i" gradientUnits="userSpaceOnUse" x1="7.9382592" x2="7.9382592" y1="14.01696629816" y2="1.44805531933"><stop offset="0" stop-color="#f44336"/><stop offset="1" stop-color="#ef5350"/></linearGradient><path d="m7.609375 14.015625h.660156v.664063h-.660156zm0 0" fill="url(#a)"/><path d="m8.269531 14.015625h1.324219v-.660156h-1.324219zm0 0" fill="url(#c)"/><path d="m7.609375 14.015625h-1.324219v.664063h1.324219zm0 0" fill="url(#d)"/><path d="m7.609375 14.015625h-1.324219v-.660156h1.324219zm0 0" fill="url(#e)"/><path d="m8.269531 14.015625h1.324219v.664063h-1.324219zm0 0" fill="url(#f)"/><path d="m7.9375 1.449219c-.914062 0-1.652344.738281-1.652344 1.652343v4.03125c-1.179687.601563-1.984375 1.828126-1.984375 3.246094 0 2.015625 1.621094 3.636719 3.636719 3.636719s3.640625-1.621094 3.640625-3.636719c0-1.417968-.804687-2.644531-1.984375-3.246094v-4.03125c0-.914062-.738281-1.652343-1.65625-1.652343zm0 0" fill="url(#g)"/><path d="m7.9375 2.109375c-.550781 0-.992188.441406-.992188.992187v4.46875c-1.15625.40625-1.984374 1.507813-1.984374 2.808594 0 1.648438 1.328124 2.976563 2.976562 2.976563s2.976562-1.328125 2.976562-2.976563c0-1.300781-.824218-2.402344-1.984374-2.808594v-4.46875c0-.550781-.441407-.992187-.992188-.992187zm0 0" fill="url(#h)"/><path d="m6.945312 6.414062v1.15625c-1.15625.40625-1.984374 1.507813-1.984374 2.808594 0 1.648438 1.328124 2.976563 2.976562 2.976563s2.976562-1.328125 2.976562-2.976563c0-1.300781-.824218-2.402344-1.984374-2.808594v-1.15625c-.496094-.5-1.488282-.5-1.984376 0zm0 0" fill="url(#i)"/><path d="m7.9375 1.449219c-.914062 0-1.652344.738281-1.652344 1.652343v.125c0-.917968.738282-1.65625 1.652344-1.65625.917969 0 1.65625.738282 1.65625 1.65625v-.125c0-.914062-.738281-1.652343-1.65625-1.652343zm-1.652344 5.683593c-1.179687.601563-1.984375 1.828126-1.984375 3.246094v.0625c.023438-1.394531.820313-2.589844 1.984375-3.183594zm3.308594 0v.125c1.160156.59375 1.960938 1.789063 1.980469 3.183594.003906-.023437.003906-.042968.003906-.0625 0-1.417968-.804687-2.644531-1.984375-3.246094zm0 0" fill="#fff" fill-opacity=".960784"/><path d="m4.300781 10.289062v.089844c0 2.015625 1.621094 3.636719 3.636719 3.636719s3.640625-1.621094 3.640625-3.636719c0-.03125-.003906-.058594-.003906-.089844-.050781 1.972657-1.652344 3.542969-3.636719 3.542969s-3.585938-1.570312-3.636719-3.542969zm0 0" fill-opacity=".235294"/><path d="m959.908345 175.258856c-110.540626 0-199.82344 89.282814-199.82344 199.82344v487.512507c-142.663543 72.748959-239.977086 221.081252-239.977086 392.560942 0 243.756253 196.044273 439.800526 439.800526 439.800526s440.272923-196.044273 440.272923-439.800526c0-171.47969-97.313543-319.811983-239.977087-392.560942v-487.512507c0-110.540626-89.282813-199.82344-200.295836-199.82344zm0 0" fill="none" stroke="#212121" stroke-linecap="round" stroke-linejoin="round" stroke-width="11.338583" transform="scale(.00826902)"/><path d="m4.960938 10.457031v.066407c0 1.652343 1.328124 2.976562 2.976562 2.976562s2.976562-1.324219 2.976562-2.976562c0-.023438 0-.042969 0-.066407-.039062 1.613281-1.351562 2.902344-2.976562 2.902344s-2.9375-1.289063-2.976562-2.902344zm0 0" fill="#fff7f7"/><path d="m7.9375 2.109375c-.550781 0-.992188.441406-.992188.992187v.164063c0-.546875.441407-.992187.992188-.992187s.992188.445312.992188.992187v-.164063c0-.550781-.441407-.992187-.992188-.992187zm-.992188 5.460937c-1.15625.40625-1.984374 1.507813-1.984374 2.808594v.085938c.035156-1.265625.851562-2.332032 1.984374-2.730469zm1.984376 0v.164063c1.136718.398437 1.949218 1.464844 1.984374 2.730469 0-.03125 0-.058594 0-.085938 0-1.300781-.824218-2.402344-1.984374-2.808594zm0 0" fill-opacity=".235294"/><path d="m959.908345 255.093753c-66.607813 0-119.988543 53.38073-119.988543 119.988543v540.420841c-139.829168 49.129167-239.977086 182.344793-239.977086 339.652608 0 199.351044 160.614585 359.96563 359.965629 359.96563 199.351045 0 359.96563-160.614586 359.96563-359.96563 0-157.307815-99.675522-290.523441-239.977086-339.652608v-540.420841c0-66.607813-53.38073-119.988543-119.988544-119.988543zm0 0" fill="none" stroke="#212121" stroke-linecap="round" stroke-linejoin="round" stroke-width="11.338583" transform="scale(.00826902)"/></svg>

<?xml version="1.0" encoding="UTF-8"?>
<svg xmlns="http://www.w3.org/2000/svg" xmlns:xlink="http://www.w3.org/1999/xlink" width="16pt" height="16pt" viewBox="0 0 16 16" version="1.1">
<defs>
<linearGradient id="linear0" gradientUnits="userSpaceOnUse" x1="254" y1="233.5" x2="254" y2="254.66667" gradientTransform="matrix(0.00190858,0,0,0.031253,7.450955,6.719392)">
<stop offset="0" style="stop-color:rgb(0%,0%,0%);stop-opacity:0.27451;"/>
<stop offset="1" style="stop-color:rgb(0%,0%,0%);stop-opacity:0;"/>
</linearGradient>
<radialGradient id="radial0" gradientUnits="userSpaceOnUse" cx="450.90894" cy="189.57936" fx="450.90894" fy="189.57936" r="21.166656" gradientTransform="matrix(0.0000000870852,-0.0390662,-0.0703192,-0.0000000507693,21.434674,31.797667)">
<stop offset="0" style="stop-color:rgb(0%,0%,0%);stop-opacity:0.313725;"/>
<stop offset="0.222222" style="stop-color:rgb(0%,0%,0%);stop-opacity:0.27451;"/>
<stop offset="1" style="stop-color:rgb(0%,0%,0%);stop-opacity:0;"/>
</radialGradient>
<radialGradient id="radial1" gradientUnits="userSpaceOnUse" cx="450.90894" cy="189.57936" fx="450.90894" fy="189.57936" r="21.166656" gradientTransform="matrix(-0.0000000870852,0.0390662,0.0703192,0.0000000507693,-5.558155,-3.763739)">
<stop offset="0" style="stop-color:rgb(0%,0%,0%);stop-opacity:0.313725;"/>
<stop offset="0.222222" style="stop-color:rgb(0%,0%,0%);stop-opacity:0.27451;"/>
<stop offset="1" style="stop-color:rgb(0%,0%,0%);stop-opacity:0;"/>
</radialGradient>
<radialGradient id="radial2" gradientUnits="userSpaceOnUse" cx="450.90894" cy="189.57936" fx="450.90894" fy="189.57936" r="21.166656" gradientTransform="matrix(-0.0000000870852,-0.0390662,0.0703192,-0.0000000507693,-5.558155,31.797667)">
<stop offset="0" style="stop-color:rgb(0%,0%,0%);stop-opacity:0.313725;"/>
<stop offset="0.222222" style="stop-color:rgb(0%,0%,0%);stop-opacity:0.27451;"/>
<stop offset="1" style="stop-color:rgb(0%,0%,0%);stop-opacity:0;"/>
</radialGradient>
<radialGradient id="radial3" gradientUnits="userSpaceOnUse" cx="450.90894" cy="189.57936" fx="450.90894" fy="189.57936" r="21.166656" gradientTransform="matrix(0.0000000870852,0.0390662,-0.0703192,0.0000000507693,21.434673,-3.76374)">
<stop offset="0" style="stop-color:rgb(0%,0%,0%);stop-opacity:0.313725;"/>
<stop offset="0.222222" style="stop-color:rgb(0%,0%,0%);stop-opacity:0.27451;"/>
<stop offset="1" style="stop-color:rgb(0%,0%,0%);stop-opacity:0;"/>
</radialGradient>
<linearGradient id="linear1" gradientUnits="userSpaceOnUse" x1="960" y1="1695.1182" x2="960" y2="175.11812" gradientTransform="matrix(0.00826902,0,0,0.00826902,0,0)">
<stop offset="0" style="stop-color:rgb(74.117647%,74.117647%,74.117647%);stop-opacity:1;"/>
<stop offset="1" style="stop-color:rgb(87.843137%,87.843137%,87.843137%);stop-opacity:1;"/>
</linearGradient>
<linearGradient id="linear2" gradientUnits="userSpaceOnUse" x1="960" y1="1695.1182" x2="960" y2="175.11812" gradientTransform="matrix(0.00826902,0,0,0.00826902,0,0)">
<stop offset="0" style="stop-color:rgb(36.078431%,41.960784%,75.294118%);stop-opacity:1;"/>
<stop offset="1" style="stop-color:rgb(47.45098%,52.54902%,79.607843%);stop-opacity:1;"/>
</linearGradient>
<linearGradient id="linear3" gradientUnits="userSpaceOnUse" x1="960" y1="1695.1182" x2="960" y2="175.11813" gradientTransform="matrix(0.00826902,0,0,0.00826902,0,0)">
<stop offset="0" style="stop-color:rgb(95.686275%,26.27451%,21.176471%);stop-opacity:1;"/>
<stop offset="1" style="stop-color:rgb(93.72549%,32.54902%,31.372549%);stop-opacity:1;"/>
</linearGradient>
</defs>
<g id="surface1">
<path style=" stroke:none;fill-rule:nonzero;fill:url(#linear0);" d="M 7.609375 14.015625 L 8.269531 14.015625 L 8.269531 14.679688 L 7.609375 14.679688 Z M 7.609375 14.015625 "/>
<path style=" stroke:none;fill-rule:nonzero;fill:url(#radial0);" d="M 8.269531 14.015625 L 9.59375 14.015625 L 9.59375 13.355469 L 8.269531 13.355469 Z M 8.269531 14.015625 "/>
<path style=" stroke:none;fill-rule:nonzero;fill:url(#radial1);" d="M 7.609375 14.015625 L 6.285156 14.015625 L 6.285156 14.679688 L 7.609375 14.679688 Z M 7.609375 14.015625 "/>
<path style=" stroke:none;fill-rule:nonzero;fill:url(#radial2);" d="M 7.609375 14.015625 L 6.285156 14.015625 L 6.285156 13.355469 L 7.609375 13.355469 Z M 7.609375 14.015625 "/>
<path style=" stroke:none;fill-rule:nonzero;fill:url(#radial3);" d="M 8.269531 14.015625 L 9.59375 14.015625 L 9.59375 14.679688 L 8.269531 14.679688 Z M 8.269531 14.015625 "/>
<path style=" stroke:none;fill-rule:nonzero;fill:url(#linear1);" d="M 7.9375 1.449219 C 7.023438 1.449219 6.285156 2.1875 6.285156 3.101562 L 6.285156 7.132812 C 5.105469 7.734375 4.300781 8.960938 4.300781 10.378906 C 4.300781 12.394531 5.921875 14.015625 7.9375 14.015625 C 9.953125 14.015625 11.578125 12.394531 11.578125 10.378906 C 11.578125 8.960938 10.773438 7.734375 9.59375 7.132812 L 9.59375 3.101562 C 9.59375 2.1875 8.855469 1.449219 7.9375 1.449219 Z M 7.9375 1.449219 "/>
<path style=" stroke:none;fill-rule:nonzero;fill:url(#linear2);" d="M 7.9375 2.109375 C 7.386719 2.109375 6.945312 2.550781 6.945312 3.101562 L 6.945312 7.570312 C 5.789062 7.976562 4.960938 9.078125 4.960938 10.378906 C 4.960938 12.027344 6.289062 13.355469 7.9375 13.355469 C 9.585938 13.355469 10.914062 12.027344 10.914062 10.378906 C 10.914062 9.078125 10.089844 7.976562 8.929688 7.570312 L 8.929688 3.101562 C 8.929688 2.550781 8.488281 2.109375 7.9375 2.109375 Z M 7.9375 2.109375 "/>
<path style=" stroke:none;fill-rule:nonzero;fill:url(#linear3);" d="M 6.945312 6.414062 L 6.945312 7.570312 C 5.789062 7.976562 4.960938 9.078125 4.960938 10.378906 C 4.960938 12.027344 6.289062 13.355469 7.9375 13.355469 C 9.585938 13.355469 10.914062 12.027344 10.914062 10.378906 C 10.914062 9.078125 10.089844 7.976562 8.929688 7.570312 L 8.929688 6.414062 C 8.433594 5.914062 7.441406 5.914062 6.945312 6.414062 Z M 6.945312 6.414062 "/>
<path style=" stroke:none;fill-rule:nonzero;fill:rgb(100%,100%,100%);fill-opacity:0.960784;" d="M 7.9375 1.449219 C 7.023438 1.449219 6.285156 2.1875 6.285156 3.101562 L 6.285156 3.226562 C 6.285156 2.308594 7.023438 1.570312 7.9375 1.570312 C 8.855469 1.570312 9.59375 2.308594 9.59375 3.226562 L 9.59375 3.101562 C 9.59375 2.1875 8.855469 1.449219 7.9375 1.449219 Z M 6.285156 7.132812 C 5.105469 7.734375 4.300781 8.960938 4.300781 10.378906 C 4.300781 10.398438 4.300781 10.417969 4.300781 10.441406 C 4.324219 9.046875 5.121094 7.851562 6.285156 7.257812 Z M 9.59375 7.132812 L 9.59375 7.257812 C 10.753906 7.851562 11.554688 9.046875 11.574219 10.441406 C 11.578125 10.417969 11.578125 10.398438 11.578125 10.378906 C 11.578125 8.960938 10.773438 7.734375 9.59375 7.132812 Z M 9.59375 7.132812 "/>
<path style=" stroke:none;fill-rule:nonzero;fill:rgb(0%,0%,0%);fill-opacity:0.235294;" d="M 4.300781 10.289062 C 4.300781 10.320312 4.300781 10.347656 4.300781 10.378906 C 4.300781 12.394531 5.921875 14.015625 7.9375 14.015625 C 9.953125 14.015625 11.578125 12.394531 11.578125 10.378906 C 11.578125 10.347656 11.574219 10.320312 11.574219 10.289062 C 11.523438 12.261719 9.921875 13.832031 7.9375 13.832031 C 5.953125 13.832031 4.351562 12.261719 4.300781 10.289062 Z M 4.300781 10.289062 "/>
<path style="fill:none;stroke-width:11.338583;stroke-linecap:round;stroke-linejoin:round;stroke:rgb(12.941176%,12.941176%,12.941176%);stroke-opacity:1;stroke-miterlimit:4;" d="M 959.908345 175.258856 C 849.367719 175.258856 760.084905 264.54167 760.084905 375.082296 L 760.084905 862.594803 C 617.421362 935.343762 520.107819 1083.676055 520.107819 1255.155745 C 520.107819 1498.911998 716.152092 1694.956271 959.908345 1694.956271 C 1203.664598 1694.956271 1400.181268 1498.911998 1400.181268 1255.155745 C 1400.181268 1083.676055 1302.867725 935.343762 1160.204181 862.594803 L 1160.204181 375.082296 C 1160.204181 264.54167 1070.921368 175.258856 959.908345 175.258856 Z M 959.908345 175.258856 " transform="matrix(0.00826902,0,0,0.00826902,0,0)"/>
<path style=" stroke:none;fill-rule:nonzero;fill:rgb(100%,96.862745%,96.862745%);fill-opacity:1;" d="M 4.960938 10.457031 C 4.960938 10.480469 4.960938 10.5 4.960938 10.523438 C 4.960938 12.175781 6.289062 13.5 7.9375 13.5 C 9.585938 13.5 10.914062 12.175781 10.914062 10.523438 C 10.914062 10.5 10.914062 10.480469 10.914062 10.457031 C 10.875 12.070312 9.5625 13.359375 7.9375 13.359375 C 6.3125 13.359375 5 12.070312 4.960938 10.457031 Z M 4.960938 10.457031 "/>
<path style=" stroke:none;fill-rule:nonzero;fill:rgb(0%,0%,0%);fill-opacity:0.235294;" d="M 7.9375 2.109375 C 7.386719 2.109375 6.945312 2.550781 6.945312 3.101562 L 6.945312 3.265625 C 6.945312 2.71875 7.386719 2.273438 7.9375 2.273438 C 8.488281 2.273438 8.929688 2.71875 8.929688 3.265625 L 8.929688 3.101562 C 8.929688 2.550781 8.488281 2.109375 7.9375 2.109375 Z M 6.945312 7.570312 C 5.789062 7.976562 4.960938 9.078125 4.960938 10.378906 C 4.960938 10.40625 4.960938 10.433594 4.960938 10.464844 C 4.996094 9.199219 5.8125 8.132812 6.945312 7.734375 Z M 8.929688 7.570312 L 8.929688 7.734375 C 10.066406 8.132812 10.878906 9.199219 10.914062 10.464844 C 10.914062 10.433594 10.914062 10.40625 10.914062 10.378906 C 10.914062 9.078125 10.089844 7.976562 8.929688 7.570312 Z M 8.929688 7.570312 "/>
<path style="fill:none;stroke-width:11.338583;stroke-linecap:round;stroke-linejoin:round;stroke:rgb(12.941176%,12.941176%,12.941176%);stroke-opacity:1;stroke-miterlimit:4;" d="M 959.908345 255.093753 C 893.300532 255.093753 839.919802 308.474483 839.919802 375.082296 L 839.919802 915.503137 C 700.090634 964.632304 599.942716 1097.84793 599.942716 1255.155745 C 599.942716 1454.506789 760.557301 1615.121375 959.908345 1615.121375 C 1159.25939 1615.121375 1319.873975 1454.506789 1319.873975 1255.155745 C 1319.873975 1097.84793 1220.198453 964.632304 1079.896889 915.503137 L 1079.896889 375.082296 C 1079.896889 308.474483 1026.516159 255.093753 959.908345 255.093753 Z M 959.908345 255.093753 " transform="matrix(0.00826902,0,0,0.00826902,0,0)"/>
</g>
</svg>
